assets/img/braze_icons/announcement-03.svg

<svg fill="none" height="24" viewBox="0 0 24 24" width="24" xmlns="http://www.w3.org/2000/svg"><path clip-rule="evenodd" d="m18.5286 2.00024c1.4965.01404 2.627 1.12997 3.3268 2.42958.7262 1.34859 1.1447 3.143 1.1447 5.07029s-.4185 3.72169-1.1447 5.07029c-.7013 1.3023-1.8351 2.4202-3.3362 2.4297-2.4001.0434-5.0692-.9019-7.4262-1.3304l.2742 3.5644c.0999 1.2968-.2674 2.6179-1.80813 2.7476-1.06886.0899-2.19883.0873-3.2645.0029-1.27272-.1008-1.81213-1.1939-1.89591-2.3689l-.37525-5.2535c-.29061-.0731-.54908-.1588-.78694-.2756-1.01714-.4997-1.77462-1.4073-2.08424-2.4974-.334417-1.1774-.336174-2.99472 0-4.17831.30962-1.09011 1.0671-1.99773 2.08424-2.49736.50279-.24698 1.09768-.35479 1.89356-.49903 4.40113-.80018 11.86997-2.41435 13.39857-2.41426zm.0443 12.99666-.472-.0858c-.3652-.1572-.7923-.5405-1.1952-1.2889-.5406-1.0039-.9056-2.4595-.9056-4.12209 0-1.66256.365-3.11815.9056-4.12209.3336-.61964.6838-.98898 1.0017-1.18695.1239-.07717.2666-.11535.4102-.14146.1691-.03075.3448-.04745.5068.01012.3808.13535.8392.51813 1.2701 1.31829.5405 1.00394.9056 2.45953.9056 4.12209 0 1.66259-.3651 3.11819-.9056 4.12209-.531.986-1.1038 1.3383-1.5216 1.3747z" fill="#801ed7" fill-rule="evenodd"/></svg>

<svg width="24" height="24" viewBox="0 0 24 24" fill="none" xmlns="http://www.w3.org/2000/svg">
<path fill-rule="evenodd" clip-rule="evenodd" d="M18.5286 2.00024C20.0251 2.01428 21.1556 3.13021 21.8554 4.42982C22.5816 5.77841 23.0001 7.57282 23.0001 9.50011C23.0001 11.4274 22.5816 13.2218 21.8554 14.5704C21.1541 15.8727 20.0203 16.9906 18.5192 17.0001C16.1191 17.0435 13.45 16.0982 11.093 15.6697L11.3672 19.2341C11.4671 20.5309 11.0998 21.852 9.55907 21.9817C8.49021 22.0716 7.36024 22.069 6.29457 21.9846C5.02185 21.8838 4.48244 20.7907 4.39866 19.6157L4.02341 14.3622C3.7328 14.2891 3.47433 14.2034 3.23647 14.0866C2.21933 13.5869 1.46185 12.6793 1.15223 11.5892C0.817813 10.4118 0.816056 8.59448 1.15223 7.41089C1.46185 6.32078 2.21933 5.41316 3.23647 4.91353C3.73926 4.66655 4.33415 4.55874 5.13003 4.4145C9.53116 3.61432 17 2.00015 18.5286 2.00024ZM18.5729 14.9969L18.1009 14.9111C17.7357 14.7539 17.3086 14.3706 16.9057 13.6222C16.3651 12.6183 16.0001 11.1627 16.0001 9.50011C16.0001 7.83755 16.3651 6.38196 16.9057 5.37802C17.2393 4.75838 17.5895 4.38904 17.9074 4.19107C18.0313 4.1139 18.174 4.07572 18.3176 4.04961C18.4867 4.01886 18.6624 4.00216 18.8244 4.05973C19.2052 4.19508 19.6636 4.57786 20.0945 5.37802C20.635 6.38196 21.0001 7.83755 21.0001 9.50011C21.0001 11.1627 20.635 12.6183 20.0945 13.6222C19.5635 14.6082 18.9907 14.9605 18.5729 14.9969Z" fill="#801ED7"/>
</svg>
